svgs/thin/rectangle-ad.svg

<svg xmlns="http://www.w3.org/2000/svg" viewBox="0 0 576 512"><!--! Font Awesome Pro 6.4.2 by @fontawesome - https://fontawesome.com License - https://fontawesome.com/license (Commercial License) Copyright 2023 Fonticons, Inc. --><path d="M64 48C37.5 48 16 69.5 16 96V416c0 26.5 21.5 48 48 48H512c26.5 0 48-21.5 48-48V96c0-26.5-21.5-48-48-48H64zM0 96C0 60.7 28.7 32 64 32H512c35.3 0 64 28.7 64 64V416c0 35.3-28.7 64-64 64H64c-35.3 0-64-28.7-64-64V96zm199.3 68.7l80 176c1.8 4 0 8.8-4 10.6s-8.8 0-10.6-4L245 304H139l-19.7 43.3c-1.8 4-6.6 5.8-10.6 4s-5.8-6.6-4-10.6l80-176c1.3-2.9 4.1-4.7 7.3-4.7s6 1.8 7.3 4.7zM192 187.3L146.2 288h91.5L192 187.3zM376 224a56 56 0 1 0 0 112 56 56 0 1 0 0-112zm56 10.7V168c0-4.4 3.6-8 8-8s8 3.6 8 8V280v64c0 4.4-3.6 8-8 8s-8-3.6-8-8V325.3c-13.2 16.3-33.4 26.7-56 26.7c-39.8 0-72-32.2-72-72s32.2-72 72-72c22.6 0 42.8 10.4 56 26.7z"/></svg>

<svg xmlns="http://www.w3.org/2000/svg" viewBox="0 0 576 512"><!--! Font Awesome Pro 6.1.1 by @fontawesome - https://fontawesome.com License - https://fontawesome.com/license (Commercial License) Copyright 2022 Fonticons, Inc. --><path d="M279.3 340.7C281.1 344.7 279.3 349.5 275.3 351.3C271.3 353.1 266.5 351.3 264.7 347.3L245 304H138.1L119.3 347.3C117.5 351.3 112.7 353.1 108.7 351.3C104.7 349.5 102.9 344.7 104.7 340.7L184.7 164.7C186 161.8 188.9 160 192 160C195.1 160 197.1 161.8 199.3 164.7L279.3 340.7zM146.2 288H237.8L192 187.3L146.2 288zM432 168C432 163.6 435.6 160 440 160C444.4 160 448 163.6 448 168V344C448 348.4 444.4 352 440 352C435.6 352 432 348.4 432 344V325.3C418.8 341.6 398.6 352 376 352C336.2 352 304 319.8 304 280C304 240.2 336.2 208 376 208C398.6 208 418.8 218.4 432 234.7V168zM376 224C345.1 224 320 249.1 320 280C320 310.9 345.1 336 376 336C406.9 336 432 310.9 432 280C432 249.1 406.9 224 376 224zM0 96C0 60.65 28.65 32 64 32H512C547.3 32 576 60.65 576 96V416C576 451.3 547.3 480 512 480H64C28.65 480 0 451.3 0 416V96zM16 96V416C16 442.5 37.49 464 64 464H512C538.5 464 560 442.5 560 416V96C560 69.49 538.5 48 512 48H64C37.49 48 16 69.49 16 96z"/></svg>
